!!!!SEGMENT: pl-sa--250-a-vii-10--001_kobierkowicz-jozef--ego-mater-pulchrae-dilectionis-ego-mater.krn
!!!cenid: 17xx:321
!!!COM: Kobierkowicz, Józef
!!!COM-rismid: pe30017725
!!!CDT: <1721->=1735
!!!CNT: Polish
!!!OPR: Ego Mater pulchrae dilectionis
!!!OTL: Ego Mater
!!!OMV: 001
!!!PDT: 1740
!!!AGN: Sacred
!!!SMS-siglum: PL-SA
!!!SMS-shelfmark: 250/A VII 10
!!!SMS-shelfwork: 001-001 M
!!!SMS-variant: Violino 1mo: PL-SA 250/A VII 10:10
!!!SMS-altvar: Violino 1mo: PL-SA 250/A VII 10:13 partia skreślona i niekompletna, częściowo pokrywa się z właściwą partią Violino 1mo
!!!NIFC-rismid: 1001035444
!!!URL-scan: http://bc.bdsandomierz.pl/dlibra/publication/1602/edition/1570/content
!!!ONB-nifc: UWAGA: części Motetu: Ego Mater, In me gratia, Surge Propera
**kern	**fba	**kern	**kern	**kern	**kern	**kern	**kern	**text	**kern	**text
*part9	*	*part8	*part7	*part5	*part4	*part3	*part2	*part2	*part1	*part1
*staff9	*	*staff8	*staff7	*staff5	*staff4	*staff3	*staff2	*staff2	*staff1	*staff1
*I"[Baſso Viola]	*	*I"Viola	*I"Violino 2do	*I"Violino 1mo	*I"Basso	*I"Tenore	*I"Alto	*	*I"Canto	*
*I'vla basso	*	*I'vla	*I'vl II	*I'vl I	*I'B	*I'T	*I'A	*	*I'C	*
*clefF4	*	*clefF4	*clefG2	*clefG2	*clefF4	*clefC4	*clefC3	*	*clefC1	*
*k[]	*	*k[]	*k[]	*k[]	*k[]	*k[]	*k[]	*	*k[]	*
*d:	*	*d:	*d:	*d:	*d:	*d:	*d:	*	*d:	*
*M4/4	*	*M2/2	*M4/4	*M4/4	*M4/4	*M4/4	*M4/4	*	*M4/4	*
*met(c)	*	*met(c|)	*met(c)	*met(c)	*met(c)	*met(c)	*met(c)	*	*met(c)	*
=1	=1	=1	=1	=1	=1	=1	=1	=1	=1	=1
!	!	!LO:TX:a:t=P:problem:oznaczenie metryczne alla breve	!	!	!	!	!LO:TX:a:t=P:problem:"E" przed kluczem	!	!LO:TX:a:t=P:problem:"E" przed kluczem	!
!	!	!	!	!	!LO:TX:a:B:t=Ego Mater Tacet	!LO:TX:a:B:t=Ego Mater Tacet	!LO:TX:a:t=P:problem:caudy w dół z prawej strony	!	!LO:TX:a:t=P:problem:caudy w dół z prawej strony	!
*2\right	*	*2\right	*	*	*	*	*	*	*	*
!LO:TX:a:t=P:problem:caudy w dół z prawej strony	!	!	!	!	!	!	!	!	!	!
2D\	.	2D\	2rg	2rg	1ryy	1ryy	(8a\L	E-	(8ff\L	E-
.	.	.	.	.	.	.	8g\J)	.	8ee\J)	.
.	.	.	.	.	.	.	(8f\L	-go	(8dd\L	-go
.	.	.	.	.	.	.	8g\J)	.	8ee\J)	.
!LO:TX:a:t=Solo	!	!	!	!	!	!	!	!	!	!
4r	.	4r	4r	4r	.	.	8a\	Ma-	8ff\	Ma-
.	.	.	.	.	.	.	8f\	-ter	8dd\	-ter
8D\L	.	8D\L	16A/LL	16d/LL	.	.	4r	.	4r	.
.	.	.	16d/	16f/	.	.	.	.	.	.
8E\J	.	8E\J	16f/	16a/	.	.	.	.	.	.
.	.	.	16d/JJ	16f/JJ	.	.	.	.	.	.
=2	=2	=2	=2	=2	=2	=2	=2	=2	=2	=2
8F\L	6	8F\L	16A/LL	16d/LL	1ryy	1ryy	0r	.	0r	.
.	.	.	16d/	16f/	.	.	.	.	.	.
8D\J	.	8D\J	16f/	16a/	.	.	.	.	.	.
.	.	.	16d/JJ	16f/JJ	.	.	.	.	.	.
8AA/L	#	8AA/L	16A/LL	16c#X/LL	.	.	.	.	.	.
.	.	.	16c#X/	16e/	.	.	.	.	.	.
8BB/J	.	8BB/J	16e/	16a/	.	.	.	.	.	.
.	.	.	16c#X/JJ	16e/JJ	.	.	.	.	.	.
8C#X/L	6	8C#X/L	16A/LL	16c#X/LL	.	.	.	.	.	.
.	.	.	16c#X/	16e/	.	.	.	.	.	.
8AA/J	#	8AA/J	16e/	16a/	.	.	.	.	.	.
.	.	.	16c#/JJ	16e/JJ	.	.	.	.	.	.
8D\L	.	8D\L	16A/LL	16d/LL	.	.	.	.	.	.
.	.	.	16d/	16f/	.	.	.	.	.	.
8E\J	.	8E\J	16f/	16a/	.	.	.	.	.	.
.	.	.	16d/JJ	16f/JJ	.	.	.	.	.	.
=3	=3	=3	=3	=3	=3	=3	=3	=3	=3	=3
8F\L	6	8F\L	16A/LL	16d/LL	1ryy	1ryy	.	.	.	.
.	.	.	16d/	16f/	.	.	.	.	.	.
8D\J	.	8D\J	16f/	16a/	.	.	.	.	.	.
.	.	.	16d/JJ	16f/JJ	.	.	.	.	.	.
8E\L	-5: 3:	8E\L	16c/LL	16e/LL	.	.	.	.	.	.
.	.	.	16e/	16g/	.	.	.	.	.	.
8D\J	.	8D\J	16g/	16b-X/	.	.	.	.	.	.
.	.	.	16e/JJ	16g/JJ	.	.	.	.	.	.
8E\L	.	8E\L	16c/LL	16e/LL	.	.	.	.	.	.
.	.	.	16e/	16g/	.	.	.	.	.	.
8C\J	-7 5	8C\J	16g/	16b-X/	.	.	.	.	.	.
.	.	.	16e/JJ	16g/JJ	.	.	.	.	.	.
8FF/L	.	8FF/L	16A/LL	16c/LL	.	.	.	.	.	.
.	.	.	16c/	16f/	.	.	.	.	.	.
8GG/J	.	8GG/J	16f/	16a/	.	.	.	.	.	.
.	.	.	16c/JJ	16f/JJ	.	.	.	.	.	.
=4	=4	=4	=4	=4	=4	=4	=4	=4	=4	=4
!LO:TX:a:t=P:problem:krzżyk przed 3 skreślony i zapisany nad nutą na wysokości C	!	!	!	!	!	!	!	!	!	!
4AA/	9 4:#3	4AA/	16A/LL	16c#X/LL	1ryy	1ryy	1r	.	1r	.
.	.	.	16c#X/	16e/	.	.	.	.	.	.
.	.	.	16e/	16g/	.	.	.	.	.	.
.	.	.	16c#X/JJ	16e/JJ	.	.	.	.	.	.
!	!	!	!LO:LB:g=original	!	!	!	!	!	!	!
!LO:TX:a:t=P:problem:mixed beam	!	!LO:TX:a:t=P:problem:mixed beam	!	!	!	!	!	!	!	!
8A\L	.	8A\L	16A/LL	16d/LL	.	.	.	.	.	.
.	.	.	16d/	16f/	.	.	.	.	.	.
8AA/J	6 4:3#	8AA/J	16f/	16a/	.	.	.	.	.	.
.	.	.	16d/JJ	16f/JJ	.	.	.	.	.	.
!LO:TX:a:t=P:problem:mixed beam	!	!LO:TX:a:t=P:problem:mixed beam	!	!	!	!	!	!	!	!
8D\L	.	8D\L	16A/LL	16d/LL	.	.	.	.	.	.
.	.	.	16d/	16f/	.	.	.	.	.	.
8G\	6 5	8F\	16f/	16a/	.	.	.	.	.	.
.	.	.	16d/JJ	16f/JJ	.	.	.	.	.	.
8A\	.	8A\	16A/LL	16c#X/LL	.	.	.	.	.	.
.	.	.	16c#X/	16e/	.	.	.	.	.	.
8AA/J	#4r	8AA/J	16e/	16a/	.	.	.	.	.	.
.	.	.	16c#X/JJ	16e/JJ	.	.	.	.	.	.
!	!	!	!	!LO:LB:g=original	!	!	!	!	!	!
=5	=5	=5	=5	=5	=5	=5	=5	=5	=5	=5
2D\	.	2D\	4d/	4d/	1ryy	1ryy	(8a\L	e-	(8ff\L	E-
.	.	.	.	.	.	.	8g\J)	.	8ee\J)	.
.	.	.	4r	4r	.	.	(8f\L	-go	(8dd\L	-go
.	.	.	.	.	.	.	8g\J)	.	8ee\J)	.
!	!	!	!	!LO:TX:a:t=P:problem:brak kreski taktowej po 2rg	!	!	!	!	!	!
4r	.	4r	2r	2rg	.	.	8a\	Ma-	8ff\	Ma-
.	.	.	.	.	.	.	8f\	-ter	8dd\	-ter
!LO:TX:a:t=P:problem:mixed beam	!	!LO:TX:a:t=P:problem:mixed beam	!	!	!	!	!	!	!	!
8A\L	.	8A\L	.	.	.	.	8e\	pul-	8cc#X\	pul-
8AA/J	#	8AA/J	.	.	.	.	8e\	-chrae	8cc#\	-chrae
!	!	!LO:LB:g=original	!	!	!	!	!	!	!	!
=6	=6	=6	=6	=6	=6	=6	=6	=6	=6	=6
4D/	.	4D/	1r	1rb	1ryy	1ryy	4r	.	16r	.
.	.	.	.	.	.	.	.	.	16dd\	di-
.	.	.	.	.	.	.	.	.	16cc#X\	-le-
.	.	.	.	.	.	.	.	.	16dd\	-cti-
4C/	4:3	4C/	.	.	.	.	16r	.	4ee\	-o-
.	.	.	.	.	.	.	16g\	di-	.	.
.	.	.	.	.	.	.	16f\	-le-	.	.
.	.	.	.	.	.	.	16g\	-cti-	.	.
!LO:TX:a:t=P:problem:mixed beam	!	!LO:TX:a:t=P:problem:mixed beam	!	!	!	!	!	!	!	!
8D\L	.	8D\L	.	.	.	.	16f\LL	-o-	16dd\LL	.
.	.	.	.	.	.	.	16a\	.	16ff\	.
8G\	.	8G\	.	.	.	.	16g\	.	16ee\	.
.	.	.	.	.	.	.	16f\JJ	.	16dd\JJ	.
8A\	.	8A\	.	.	.	.	8e\	.	8cc#X\	.
8AA/J	#	8AA/J	.	.	.	.	8e\	-nis	8cc#\	-nis
!LO:LB:g=original	!	!	!	!	!	!	!	!	!LO:LB:g=original	!
=7	=7	=7	=7	=7	=7	=7	=7	=7	=7	=7
8D\L	.	8D\L	16A/LL	16d/LL	1ryy	1ryy	00r	.	00r	.
.	.	.	16d/	16f/	.	.	.	.	.	.
8E\	.	8E\	16f/	16a/	.	.	.	.	.	.
.	.	.	16d/JJ	16f/JJ	.	.	.	.	.	.
8F\	6	8F\	16A/LL	16d/LL	.	.	.	.	.	.
.	.	.	16d/	16f/	.	.	.	.	.	.
8D\J	.	8D\J	16f/	16a/	.	.	.	.	.	.
.	.	.	16d/JJ	16f/JJ	.	.	.	.	.	.
!LO:TX:a:t=P:problem:krzyżyk przed nutą na wysokości C	!	!	!	!	!	!	!	!	!	!
8AA/L	#	8AA/L	16A/LL	16c#X/LL	.	.	.	.	.	.
.	.	.	16c#X/	16e/	.	.	.	.	.	.
8BB/	.	8BB/	16e/	16a/	.	.	.	.	.	.
.	.	.	16c#/JJ	16e/JJ	.	.	.	.	.	.
8C#X/	6	8C#X/	16A/LL	16c#X/LL	.	.	.	.	.	.
.	.	.	16c#X/	16e/	.	.	.	.	.	.
!LO:TX:a:t=P:problem:krzyżyk przed nutą na wysokości C	!	!	!	!	!	!	!	!	!	!
8AA/J	#	8AA/J	16e/	16a/	.	.	.	.	.	.
.	.	.	16c#X/JJ	16e/JJ	.	.	.	.	.	.
=8	=8	=8	=8	=8	=8	=8	=8	=8	=8	=8
8F\L	6 3	8F\L	8a\L	16d/LL	1ryy	1ryy	.	.	.	.
.	.	.	.	16A/	.	.	.	.	.	.
8E\	#6\ 3	8E\	8cc#X\J	16e/	.	.	.	.	.	.
.	.	.	.	16A/JJ	.	.	.	.	.	.
!	!	!	!LO:TX:a:t=P:problem:mixed beam	!	!	!	!	!	!	!
8A\	6	8A\	8f/L	16f/LL	.	.	.	.	.	.
.	.	.	.	16A/	.	.	.	.	.	.
8E\J	#6\ 3	8E\J	16dd\L	16e/	.	.	.	.	.	.
.	.	.	16cc#X\JJ	16A/JJ	.	.	.	.	.	.
8F\L	6 3	8F\L	8dd\L	16d/LL	.	.	.	.	.	.
.	.	.	.	16A/	.	.	.	.	.	.
8E\	#6\ 3	8E\	8cc#X\J	16e/	.	.	.	.	.	.
.	.	.	.	16A/JJ	.	.	.	.	.	.
!	!	!	!LO:TX:a:t=P:problem:mixed beam	!	!	!	!	!	!	!
8A\	6	8A\	8f/L	16f/LL	.	.	.	.	.	.
.	.	.	.	16A/	.	.	.	.	.	.
8E\J	#6\ 3	8E\J	8cc#X\J	16e/	.	.	.	.	.	.
.	.	.	.	16A/JJ	.	.	.	.	.	.
!	!	!	!LO:LB:g=original	!	!	!	!	!	!	!
=9	=9	=9	=9	=9	=9	=9	=9	=9	=9	=9
8F\L	.	8F\L	8a/	16f/LL	1ryy	1ryy	.	.	.	.
.	.	.	.	16c/	.	.	.	.	.	.
8C\J	.	8C\J	8r	16g/	.	.	.	.	.	.
.	.	.	.	16c/JJ	.	.	.	.	.	.
8FF/L	.	8FF/L	8f/	16a/LL	.	.	.	.	.	.
.	.	.	.	16c/	.	.	.	.	.	.
8C/J	.	8C/J	8r	16g/	.	.	.	.	.	.
.	.	.	.	16c/JJ	.	.	.	.	.	.
8F\L	.	8F\L	8a/	16f/LL	.	.	.	.	.	.
.	.	.	.	16c/	.	.	.	.	.	.
8C\J	.	8C\J	8r	16g/	.	.	.	.	.	.
.	.	.	.	16c/JJ	.	.	.	.	.	.
8FF/L	.	8FF/L	8f/	16a/LL	.	.	.	.	.	.
.	.	.	.	16c/	.	.	.	.	.	.
8C/J	.	8C/J	8r	16g/	.	.	.	.	.	.
.	.	.	.	16c/JJ	.	.	.	.	.	.
!	!	!	!	!LO:LB:g=original	!	!	!	!	!	!
=10	=10	=10	=10	=10	=10	=10	=10	=10	=10	=10
8D\L	9	8D\L	16A/LL	16d/LL	1ryy	1ryy	.	.	.	.
.	.	.	16d/	16f/	.	.	.	.	.	.
8E\	.	8E\	16f/	16a/	.	.	.	.	.	.
.	.	.	16d/JJ	16f/JJ	.	.	.	.	.	.
8F\	6	8F\	16A/LL	16d/LL	.	.	.	.	.	.
.	.	.	16d/	16f/	.	.	.	.	.	.
8D\J	.	8D\J	16f/	16a/	.	.	.	.	.	.
.	.	.	16d/JJ	16f/JJ	.	.	.	.	.	.
!LO:TX:a:t=P:problem:krzyżyk przed nutą na wysokości C	!	!	!	!	!	!	!	!	!	!
8AA/L	#	8AA/L	16A/LL	16c#X/LL	.	.	.	.	.	.
.	.	.	16c#X/	16e/	.	.	.	.	.	.
8BB/	.	8BB/	16e/	16a/	.	.	.	.	.	.
.	.	.	16c#X/JJ	16e/JJ	.	.	.	.	.	.
8C#X/	6	8C#X/	16A/LL	16c#X/LL	.	.	.	.	.	.
.	.	.	16c#X/	16e/	.	.	.	.	.	.
8AA/J	#	8AA/J	16e/	16a/	.	.	.	.	.	.
.	.	.	16c#X/JJ	16e/JJ	.	.	.	.	.	.
=11	=11	=11	=11	=11	=11	=11	=11	=11	=11	=11
8F\L	6 3	8F\L	8a/	16d/LL	1ryy	1ryy	0r	.	1r	.
.	.	.	.	16A/	.	.	.	.	.	.
8E\	#6\ 3	8E\	8r	16e/	.	.	.	.	.	.
.	.	.	.	16A/JJ	.	.	.	.	.	.
8A\	6	8A\	8a/	16f/LL	.	.	.	.	.	.
.	.	.	.	16A/	.	.	.	.	.	.
8E\J	#6\ 3	8E\J	8r	16e/	.	.	.	.	.	.
.	.	.	.	16A/JJ	.	.	.	.	.	.
!	!	!LO:LB:g=original	!	!	!	!	!	!	!	!
8F\L	6	8F\L	8a/	16d/LL	.	.	.	.	.	.
.	.	.	.	16A/	.	.	.	.	.	.
8E\	#6\	8E\	8r	16e/	.	.	.	.	.	.
.	.	.	.	16A/JJ	.	.	.	.	.	.
8A\	6 3	8A\	8a/	16f/LL	.	.	.	.	.	.
.	.	.	.	16A/	.	.	.	.	.	.
8E\J	#6\ 3	8E\J	8ryy	16e/	.	.	.	.	.	.
.	.	.	.	16A/JJ	.	.	.	.	.	.
=12	=12	=12	=12	=12	=12	=12	=12	=12	=12	=12
!LO:TX:a:t=P:problem:mixed beam	!	!LO:TX:a:t=P:problem:mixed beam	!	!	!	!	!	!	!	!
8D\L	.	8D\L	16A\LL	16d/LL	1ryy	1ryy	.	.	2r	.
.	.	.	16d\	16f/	.	.	.	.	.	.
8G\	6 5	8G\	16f\	16a/	.	.	.	.	.	.
.	.	.	16d/JJ	16f/JJ	.	.	.	.	.	.
8A\	#4r	8A\	16A/LL	16c#X/LL	.	.	.	.	.	.
!	!	!	!LO:SIC:s=16c#:v	!	!	!	!	!	!	!
.	.	.	16d/	16e/	.	.	.	.	.	.
8AA/J	.	8AA\J	16f/	16a/	.	.	.	.	.	.
.	.	.	16c#X/JJ	16e/JJ	.	.	.	.	.	.
!LO:LB:g=original	!	!	!	!	!	!	!	!	!	!
4D\	.	4D\	4d/	4d/	.	.	.	.	4r	.
4F\	6	4F\	4r	4r	.	.	.	.	16r	.
.	.	.	.	.	.	.	.	.	16dd\	Di-
!	!	!	!	!	!	!	!	!	!LO:SIC:s=16cc#:v	!
.	.	.	.	.	.	.	.	.	16cc\	-le-
.	.	.	.	.	.	.	.	.	16dd\	-ctio-
!	!	!	!LO:LB:g=original	!	!	!	!LO:LB:g=original	!	!	!
=13	=13	=13	=13	=13	=13	=13	=13	=13	=13	=13
4C/	4:3	4C/	1r	1r	1ryy	1ryy	16r	.	4ee\	.
.	.	.	.	.	.	.	16g\	Di-	.	.
.	.	.	.	.	.	.	16f\	-le-	.	.
.	.	.	.	.	.	.	16g\	-cti-	.	.
4D/	.	4D/	.	.	.	.	16f\LL	-o-	16dd\LL	.
.	.	.	.	.	.	.	16a\	.	16ff\	.
.	.	.	.	.	.	.	16g\	.	16ee\	.
.	.	.	.	.	.	.	16f\JJ	.	16dd\JJ	.
2r	.	2r	.	.	.	.	16e\LL	.	16cc#X\LL	.
.	.	.	.	.	.	.	16f\	.	16dd\	.
.	.	.	.	.	.	.	16e\	.	16cc#\	.
.	.	.	.	.	.	.	16f\JJ	.	16dd\JJ	.
.	.	.	.	.	.	.	16e\LL	.	16cc#\LL	.
.	.	.	.	.	.	.	16f\	.	16dd\	.
.	.	.	.	.	.	.	16e\	.	16cc#\	.
.	.	.	.	.	.	.	16f\JJ	.	16dd\JJ	.
=14	=14	=14	=14	=14	=14	=14	=14	=14	=14	=14
4r	.	4r	16A/LL	16c#X/LL	1ryy	1ryy	4e\	.	4cc#X\	.
.	.	.	16c#X/	16e/	.	.	.	.	.	.
.	.	.	16e/	16a/	.	.	.	.	.	.
.	.	.	16c#X/JJ	16e/JJ	.	.	.	.	.	.
4D\	.	4D\	4r	4r	.	.	16f\LL	.	16dd\LL	.
.	.	.	.	.	.	.	16g\	.	16ee\	.
.	.	.	.	.	.	.	16f\	.	16dd\	.
.	.	.	.	.	.	.	16g\JJ	.	16ee\JJ	.
2r	.	2r	4r	4r	.	.	16f\LL	.	16dd\LL	.
.	.	.	.	.	.	.	16g\	.	16ee\	.
.	.	.	.	.	.	.	16f\	.	16dd\	.
.	.	.	.	.	.	.	16g\JJ	.	16ee\JJ	.
.	.	.	16A/LL	16d/LL	.	.	4f\	.	4dd\	.
.	.	.	16d/	16f/	.	.	.	.	.	.
.	.	.	16f/	16a/	.	.	.	.	.	.
.	.	.	16d/JJ	16f/JJ	.	.	.	.	.	.
!	!	!	!	!LO:LB:g=original	!	!	!	!	!	!
=15	=15	=15	=15	=15	=15	=15	=15	=15	=15	=15
4C/	.	4C/	2rg	2rg	1ryy	1ryy	16g\LL	.	16ee\LL	.
.	.	.	.	.	.	.	16a\	.	16ff\	.
.	.	.	.	.	.	.	16g\	.	16ee\	.
.	.	.	.	.	.	.	16a\JJ	.	16ff\JJ	.
4r	.	4r	.	.	.	.	16g\LL	.	16ee\LL	.
.	.	.	.	.	.	.	16a\	.	16ff\	.
.	.	.	.	.	.	.	16g\	.	16ee\	.
.	.	.	.	.	.	.	16a\JJ	.	16ff\JJ	.
!	!	!	!	!	!	!	!	!	!LO:LB:g=original	!
!LO:TX:a:t=P:problem:krzyżyk przed nutą na wysokości C	!	!	!	!	!	!	!	!	!	!
4AA/	7 5 #	4AA/	16A/LL	16c#X/LL	.	.	4g\	.	4ee\	.
.	.	.	16c#X/	16e/	.	.	.	.	.	.
.	.	.	16e/	16g/	.	.	.	.	.	.
.	.	.	16c#/JJ	16e/JJ	.	.	.	.	.	.
8D\L	.	8D\L	4rg	4r	.	.	16f\LL	.	16dd\LL	.
.	.	.	.	.	.	.	16a\	.	16ff\	.
8G\J	6 5	8G\J	.	.	.	.	16g\	.	16ee\	.
.	.	.	.	.	.	.	16f\JJ	.	16dd\JJ	.
=16	=16	=16	=16	=16	=16	=16	=16	=16	=16	=16
!LO:TX:a:t=P:problem:mixed beam	!	!LO:TX:a:t=P:problem:mixed beam	!	!	!	!	!	!	!	!
8A\L	#4r	8A\L	0r	0r	1ryy	1ryy	8.e\L	.	8.cc#X\L	.
8AA/J	.	8AA/J	.	.	.	.	.	.	.	.
.	.	.	.	.	.	.	16d\Jk	.	16cc#\Jk	.
8D/L	.	8D/L	.	.	.	.	4d\	-nis	4dd\	-nis
16C/L	6	16C/L	.	.	.	.	.	.	.	.
16BB/JJ	n6\	16BB/JJ	.	.	.	.	.	.	.	.
!LO:TX:a:t=P:problem:bemol przed nutą na wysokości C	!	!	!	!	!	!	!	!	!	!
4AA/	-n	4AA/	.	.	.	.	2r	.	8.a\	E-
.	.	.	.	.	.	.	.	.	16a\	-go
4E\	#	4E\	.	.	.	.	.	.	8.g#X/	Ma-
.	.	.	.	.	.	.	.	.	16g#/	-ter
!	!	!	!	!	!	!	!LO:LB:g=original	!	!	!
=17	=17	=17	=17	=17	=17	=17	=17	=17	=17	=17
4A\	-	4A\	.	.	1ryy	1ryy	8.a\	e-	8.cc\	e-
.	.	.	.	.	.	.	16a\	-go	16cc\	-go
4E\	#	4E\	.	.	.	.	8.g#X\	Ma-	8.b\	Ma-
.	.	.	.	.	.	.	16g#\	-ter	16b\	-ter
4F\	7:6	4F\	.	.	.	.	4cc\	pul-	(8.a\L	Pul-
!	!	!	!	!	!	!	!	!	!LO:TX:a:t=P:problem:krzyżyk nad nutą	!
.	.	.	.	.	.	.	.	.	16g#X\Jk)	.
4E\	#	4E\	.	.	.	.	4b\	-chrae	4g#\	-chrae
=18	=18	=18	=18	=18	=18	=18	=18	=18	=18	=18
2AA/	.	2AA/	2r	2r	1ryy	1ryy	(8e\L	e-	(8cc\L	e-
.	.	.	.	.	.	.	8d\J)	.	8b\J)	.
.	.	.	.	.	.	.	(8c\L	-go	(8a\L	-go
.	.	.	.	.	.	.	8d\J)	.	8b\J)	.
4r	.	4r	4r	4r	.	.	8e\	Ma-	8cc\	Ma-
.	.	.	.	.	.	.	8c\	-ter	8a\	-ter
8AA/L	.	8AA/L	16e\LL	16a\LL	.	.	4r	.	4r	.
.	.	.	16a\	16cc\	.	.	.	.	.	.
8BB/J	.	8BB/J	16cc\	16ee\	.	.	.	.	.	.
.	.	.	16a\JJ	16cc\JJ	.	.	.	.	.	.
!	!	!LO:LB:g=original	!	!	!	!	!	!	!	!
=19	=19	=19	=19	=19	=19	=19	=19	=19	=19	=19
8C/L	6	8C/L	16e\LL	16a\LL	1ryy	1ryy	0r	.	0r	.
.	.	.	16a\	16cc\	.	.	.	.	.	.
8AA/J	.	8AA/J	16cc\	16ee\	.	.	.	.	.	.
.	.	.	16a\JJ	16cc\JJ	.	.	.	.	.	.
!LO:SIC:s=8E:v	!	!	!	!	!	!	!	!	!	!
8F\L	#	8E\L	16e/LL	16g#X\LL	.	.	.	.	.	.
.	.	.	16g#X/	16b\	.	.	.	.	.	.
8F#X\J	.	8F#X\J	16b/	16ee\	.	.	.	.	.	.
.	.	.	16g#X/JJ	16b\JJ	.	.	.	.	.	.
8G#X\L	6	8G#X\L	16e/LL	16g#X\LL	.	.	.	.	.	.
.	.	.	16g#X/	16b\	.	.	.	.	.	.
8E\J	#	8E\J	16b/	16ee\	.	.	.	.	.	.
.	.	.	16g#X/JJ	16b\JJ	.	.	.	.	.	.
8AA/L	.	8AA/L	16e\LL	16a\LL	.	.	.	.	.	.
.	.	.	16a\	16cc\	.	.	.	.	.	.
8BB/J	.	8BB/J	16cc\	16ee\	.	.	.	.	.	.
.	.	.	16a\JJ	16cc\JJ	.	.	.	.	.	.
!LO:LB:g=original	!	!	!LO:LB:g=original	!	!	!	!	!	!	!
=20	=20	=20	=20	=20	=20	=20	=20	=20	=20	=20
8C/L	6	8C/L	16e\LL	16a\LL	1ryy	1ryy	.	.	.	.
.	.	.	16a\	16cc\	.	.	.	.	.	.
8AA/J	.	8AA/J	16cc\	16ee\	.	.	.	.	.	.
.	.	.	16a\JJ	16cc\JJ	.	.	.	.	.	.
8D/L	.	8D/L	16g\LL	16b\LL	.	.	.	.	.	.
.	.	.	16b\	16dd\	.	.	.	.	.	.
8C/J	7	8C/J	16dd\	16ff\	.	.	.	.	.	.
.	.	.	16b\JJ	16dd\JJ	.	.	.	.	.	.
8D/L	.	8D/L	16g\LL	16b\LL	.	.	.	.	.	.
.	.	.	16b\	16dd\	.	.	.	.	.	.
8GG/J	.	8GG/J	16dd\	16ff\	.	.	.	.	.	.
.	.	.	16b\JJ	16dd\JJ	.	.	.	.	.	.
8C/L	.	8C/L	16e\LL	16g\LL	.	.	.	.	.	.
.	.	.	16g\	16cc\	.	.	.	.	.	.
8D/J	.	8D/J	16cc\	16ee\	.	.	.	.	.	.
.	.	.	16g\JJ	16cc\JJ	.	.	.	.	.	.
=21	=21	=21	=21	=21	=21	=21	=21	=21	=21	=21
4E\	#	4E\	16e/LL	16g#X\LL	1ryy	1ryy	1r	.	1r	.
.	.	.	16g#X/	16b\	.	.	.	.	.	.
.	.	.	16b/	16ee\	.	.	.	.	.	.
.	.	.	16g#/JJ	16b\JJ	.	.	.	.	.	.
8AA/L	.	8AA/L	16e\LL	16a\LL	.	.	.	.	.	.
.	.	.	16a\	16cc\	.	.	.	.	.	.
8BB/J	.	8BB/J	16cc\	16ee\	.	.	.	.	.	.
.	.	.	16a\JJ	16cc\JJ	.	.	.	.	.	.
!	!	!	!	!LO:LB:g=original	!	!	!	!	!	!
8C/L	6	8C/L	16e\LL	16a\LL	.	.	.	.	.	.
.	.	.	16a\	16cc\	.	.	.	.	.	.
8D/J	6 5	8D/J	16cc\	16ee\	.	.	.	.	.	.
.	.	.	16a\JJ	16cc\JJ	.	.	.	.	.	.
!	!	!	!	!	!	!	!	!	!	!
!LO:TX:a:t=P:problem:mixed beam	!	!LO:TX:a:t=P:problem:mixed beam	!	!	!	!	!	!	!	!
8E\L	.	8E\L	16e/LL	16g#X\LL	.	.	.	.	.	.
.	.	.	16g#X/	16b\	.	.	.	.	.	.
8EE/J	5 4:3 #	8EE/J	16b/	16ee\	.	.	.	.	.	.
.	.	.	16g#X/JJ	16b\JJ	.	.	.	.	.	.
=22	=22	=22	=22	=22	=22	=22	=22	=22	=22	=22
2AA/	.	2AA/	4a/	4a/	1ryy	1ryy	(8e\L	e-	(8cc\L	E-
.	.	.	.	.	.	.	8d\J)	.	8b\J)	.
!	!	!	!	!	!	!	!	!	!LO:LB:g=original	!
.	.	.	4r	4r	.	.	(8c\L	-go	(8a\L	-go
.	.	.	.	.	.	.	8d\J)	.	8b\J)	.
!	!	!	!	!LO:TX:a:t=P:problem:brak kreski taktowej	!	!	!	!	!	!
4rBB	.	4r	2r	2r	.	.	8e\	Ma-	8cc\	Ma-
.	.	.	.	.	.	.	8c\	-ter	8a\	-ter
!LO:TX:a:t=P:problem:mixed beam	!	!LO:TX:a:t=P:problem:mixed beam	!	!	!	!	!	!	!	!
8E\L	#	8E\L	.	.	.	.	8B/	pul-	8g#X/	pul-
8EE/J	.	8EE/J	.	.	.	.	8B/	-chrae	8g#/	-chrae
=23	=23	=23	=23	=23	=23	=23	=23	=23	=23	=23
4AA/	.	4AA/	1r	1r	1ryy	1ryy	4r	.	16r	.
.	.	.	.	.	.	.	.	.	16a\	di-
!	!	!	!	!	!	!	!	!	!LO:SIC:s=16g#:v	!
.	.	.	.	.	.	.	.	.	16g\	-le-
.	.	.	.	.	.	.	.	.	16a\	-cti-
4E\	#	4E\	.	.	.	.	16r	.	4b\	-o-
.	.	.	.	.	.	.	16g#X\	Di-	.	.
.	.	.	.	.	.	.	16f#X\	-le-	.	.
.	.	.	.	.	.	.	16g#X\	-cti-	.	.
!LO:TX:a:t=P:problem:mixed beam	!	!LO:TX:a:t=P:problem:mixed beam	!	!	!	!	!	!	!	!
!	!	!	!	!	!	!	!LO:LB:g=original	!	!	!
8C\L	6	8C\L	.	.	.	.	16a\LL	-o-	16cc\LL	.
.	.	.	.	.	.	.	16cc\	.	16ee\	.
8D\	6 5	8D\	.	.	.	.	16b\	.	16dd\	.
.	.	.	.	.	.	.	16a\JJ	.	16cc\JJ	.
8E\	.	8E\	.	.	.	.	8g#X\	.	8b\	.
8EE/J	#4r	8EE/J	.	.	.	.	8g#\	-nis	8b\	-nis
!	!	!LO:LB:g=original	!	!	!	!	!	!	!	!
=24	=24	=24	=24	=24	=24	=24	=24	=24	=24	=24
8AA/L	.	8AA/L	16e\LL	16a\LL	1ryy	1ryy	00r	.	00r	.
.	.	.	16a\	16cc\	.	.	.	.	.	.
8BB/	.	8BB/	16cc\	16ee\	.	.	.	.	.	.
.	.	.	16a\JJ	16cc\JJ	.	.	.	.	.	.
8C/	6	8C/	16e\LL	16a\LL	.	.	.	.	.	.
.	.	.	16a\	16cc\	.	.	.	.	.	.
8AA/J	.	8AA/J	16cc\	16ee\	.	.	.	.	.	.
.	.	.	16a\JJ	16cc\JJ	.	.	.	.	.	.
!	!	!	!LO:SIC:t=custos e:v	!	!	!	!	!	!	!
!	!	!	!LO:LB:g=original	!	!	!	!	!	!	!
8E\L	#	8E\L	16e/LL	16g#X\LL	.	.	.	.	.	.
.	.	.	16g#X/	16b\	.	.	.	.	.	.
8F#X\	.	8F#X\	16b/	16ee\	.	.	.	.	.	.
.	.	.	16g#X/JJ	16b\JJ	.	.	.	.	.	.
8G#X\	6	8G#X\	16e/LL	16g#X\LL	.	.	.	.	.	.
.	.	.	16g#X/	16b\	.	.	.	.	.	.
8E\J	#	8E\J	16b/	16ee\	.	.	.	.	.	.
.	.	.	16g#/JJ	16b\JJ	.	.	.	.	.	.
=25	=25	=25	=25	=25	=25	=25	=25	=25	=25	=25
8AA/	.	8AA/	8cc\	16a/LL	1ryy	1ryy	.	.	.	.
.	.	.	.	16e/	.	.	.	.	.	.
8rBB	.	8rBB	8r	16b/	.	.	.	.	.	.
.	.	.	.	16e/JJ	.	.	.	.	.	.
8AA/	.	8AA/	8a/	16cc/LL	.	.	.	.	.	.
.	.	.	.	16e/	.	.	.	.	.	.
8rBB	.	8rBB	8r	16b/	.	.	.	.	.	.
.	.	.	.	16e/JJ	.	.	.	.	.	.
8AA/	.	8AA/	8cc\	16a/LL	.	.	.	.	.	.
.	.	.	.	16e/	.	.	.	.	.	.
8rBB	.	8rBB	8r	16b/	.	.	.	.	.	.
.	.	.	.	16e/JJ	.	.	.	.	.	.
8AA/	.	8AA/	8a/	16cc/LL	.	.	.	.	.	.
.	.	.	.	16e/	.	.	.	.	.	.
8rBB	.	8rBB	8r	16b/	.	.	.	.	.	.
.	.	.	.	16e/JJ	.	.	.	.	.	.
!LO:LB:g=original	!	!	!	!	!	!	!	!	!	!
=26	=26	=26	=26	=26	=26	=26	=26	=26	=26	=26
8C/	.	8C/	8ee\	16cc\LL	1ryy	1ryy	.	.	.	.
.	.	.	.	16g\	.	.	.	.	.	.
8r	.	8r	8r	16dd\	.	.	.	.	.	.
.	.	.	.	16g\JJ	.	.	.	.	.	.
8C/	.	8C/	8cc\	16ee\LL	.	.	.	.	.	.
.	.	.	.	16g\	.	.	.	.	.	.
8r	.	8r	8r	16dd\	.	.	.	.	.	.
.	.	.	.	16g\JJ	.	.	.	.	.	.
!	!	!	!	!LO:LB:g=original	!	!	!	!	!	!
8C/	.	8C/	8ee\	16cc\LL	.	.	.	.	.	.
.	.	.	.	16g\	.	.	.	.	.	.
8r	.	8r	8r	16dd\	.	.	.	.	.	.
.	.	.	.	16g\JJ	.	.	.	.	.	.
!	!	!	!	!	!	!	!	!	!	!
8C/	.	8C/	8cc\	16ee\LL	.	.	.	.	.	.
.	.	.	.	16g\	.	.	.	.	.	.
8r	.	8r	8r	16dd\	.	.	.	.	.	.
.	.	.	.	16g\JJ	.	.	.	.	.	.
=27	=27	=27	=27	=27	=27	=27	=27	=27	=27	=27
8AA/L	.	8AA/L	16e\LL	16a\LL	1ryy	1ryy	.	.	.	.
.	.	.	16a\	16cc\	.	.	.	.	.	.
8BB/	.	8BB/	16cc\	16ee\	.	.	.	.	.	.
!	!	!	!	!	!	!	!	!	!	!
.	.	.	16a\JJ	16cc\JJ	.	.	.	.	.	.
8C/	6	8C/	16e\LL	16a\LL	.	.	.	.	.	.
.	.	.	16a\	16cc\	.	.	.	.	.	.
8AA/J	.	8AA/J	16cc\	16ee\	.	.	.	.	.	.
.	.	.	16a\JJ	16cc\JJ	.	.	.	.	.	.
8E\L	#	8E\L	16e/LL	16g#X\LL	.	.	.	.	.	.
.	.	.	16g#X/	16b\	.	.	.	.	.	.
8F#X\	.	8F#X\	16b/	16ee\	.	.	.	.	.	.
.	.	.	16g#X/JJ	16b\JJ	.	.	.	.	.	.
8G#X\	6	8G#X\	16e/LL	16g#X\LL	.	.	.	.	.	.
.	.	.	16g#X/	16b\	.	.	.	.	.	.
8E\J	#	8E\J	16b/	16ee\	.	.	.	.	.	.
.	.	.	16g#X/JJ	16b\JJ	.	.	.	.	.	.
=28	=28	=28	=28	=28	=28	=28	=28	=28	=28	=28
8AA/	.	8AA/	8cc\	16a/LL	1ryy	1ryy	0r	.	1r	.
.	.	.	.	16e/	.	.	.	.	.	.
8r	.	8rBB	8rg	16b/	.	.	.	.	.	.
.	.	.	.	16e/JJ	.	.	.	.	.	.
!	!	!	!LO:LB:g=original	!	!	!	!	!	!	!
8AA/	.	8AA/	8a/	16cc/LL	.	.	.	.	.	.
.	.	.	.	16e/	.	.	.	.	.	.
8r	.	8rBB	8r	16b/	.	.	.	.	.	.
.	.	.	.	16e/JJ	.	.	.	.	.	.
8AA/	.	8AA/	8cc\	16a/LL	.	.	.	.	.	.
.	.	.	.	16e/	.	.	.	.	.	.
8r	.	8rBB	8r	16b/	.	.	.	.	.	.
.	.	.	.	16e/JJ	.	.	.	.	.	.
8AA/	.	8AA/	8a/	16cc/LL	.	.	.	.	.	.
.	.	.	.	16e/	.	.	.	.	.	.
8r	.	8rBB	8r	16b/	.	.	.	.	.	.
.	.	.	.	16e/JJ	.	.	.	.	.	.
!	!	!LO:LB:g=original	!	!	!	!	!	!	!	!
=29	=29	=29	=29	=29	=29	=29	=29	=29	=29	=29
!	!	!	!	!	!	!	!	!	!	!
8AA/L	.	8AA/L	16e\LL	16a\LL	1ryy	1ryy	.	.	2r	.
.	.	.	16a\	16cc\	.	.	.	.	.	.
8D/J	6 5	8D/J	16cc\	16ee\	.	.	.	.	.	.
.	.	.	16a\JJ	16cc\JJ	.	.	.	.	.	.
!LO:TX:a:t=P:problem:mixed beam	!	!LO:TX:a:t=P:problem:mixed beam	!	!	!	!	!	!	!	!
8E\L	4	8E\L	16e/LL	16g#X\LL	.	.	.	.	.	.
.	.	.	16g#X/	16b\	.	.	.	.	.	.
8EE/J	4:3	8EE/J	16b/	16ee\	.	.	.	.	.	.
!	!	!	!LO:TX:a:t=P:problem:krzyżyk pod nutą	!	!	!	!	!	!	!
.	.	.	16g#X/JJ	16b\JJ	.	.	.	.	.	.
4AA/	.	4AA/	4a/	4a/	.	.	.	.	4r	.
!	!	!	!	!LO:TX:a:t=P:problem:brak kreski taktowej	!	!	!	!	!	!
4C/	6	4C/	4r	4r	.	.	.	.	16r	.
.	.	.	.	.	.	.	.	.	16a\	Di-
.	.	.	.	.	.	.	.	.	16g#X\	-le-
.	.	.	.	.	.	.	.	.	16a\	-cti-
=30	=30	=30	=30	=30	=30	=30	=30	=30	=30	=30
4E\	7 #	4E\	1r	1r	1ryy	1ryy	16r	.	4b\	-o-
.	.	.	.	.	.	.	16g#X\	Di-	.	.
.	.	.	.	.	.	.	16f#X\	-le-	.	.
.	.	.	.	.	.	.	16g#X\	-cti-	.	.
!LO:TX:a:t=P:problem:bemol przed nutą, na wysokości C	!	!	!	!	!	!	!	!	!	!
4AA/	-	4AA/	.	.	.	.	16c\LL	-o-	16a\LL	.
.	.	.	.	.	.	.	16e\	.	16cc\	.
.	.	.	.	.	.	.	16d\	.	16b\	.
.	.	.	.	.	.	.	16c\JJ	.	16a\JJ	.
!	!	!	!	!	!	!	!	!	!LO:LB:g=original	!
8E\	#	8E\	.	.	.	.	16B/LL	.	16g#X\LL	.
.	.	.	.	.	.	.	16c/	.	16a\	.
8r	.	8rBB	.	.	.	.	16B/	.	16g#\	.
.	.	.	.	.	.	.	16c/JJ	.	16a\JJ	.
8D/	6 5	8D\	.	.	.	.	16B/LL	.	16g#\LL	.
.	.	.	.	.	.	.	16c/	.	16a\	.
8r	.	8rBB	.	.	.	.	16B/	.	16g#\	.
.	.	.	.	.	.	.	16c/JJ	.	16a\JJ	.
!LO:LB:g=original	!	!	!	!	!	!	!	!	!	!
=31	=31	=31	=31	=31	=31	=31	=31	=31	=31	=31
4r	.	4r	16g#X\LL	16e\LL	1ryy	1ryy	4B/	.	4g#X\	.
.	.	.	16b\	16g#X\	.	.	.	.	.	.
.	.	.	16ee\	16b\	.	.	.	.	.	.
!	!	!	!	!LO:TX:a:t=P:problem:krzyżyk nad nutą	!	!	!	!	!	!
.	.	.	16b\JJ	16g#X\JJ	.	.	.	.	.	.
!	!	!	!	!LO:LB:g=original	!	!	!	!	!	!
4AA/	.	4AA/	4r	4r	.	.	16c/LL	.	16a\LL	.
.	.	.	.	.	.	.	16d/	.	16b\	.
.	.	.	.	.	.	.	16c/	.	16a\	.
.	.	.	.	.	.	.	16d/JJ	.	16b\JJ	.
2rBB	.	2rBB	4rg	4r	.	.	16c/LL	.	16a\LL	.
.	.	.	.	.	.	.	16d/	.	16b\	.
.	.	.	.	.	.	.	16c/	.	16a\	.
.	.	.	.	.	.	.	16d/JJ	.	16b\JJ	.
.	.	.	16e\LL	16a\LL	.	.	4c/	.	4a\	.
.	.	.	16a\	16cc\	.	.	.	.	.	.
.	.	.	16cc\	16ee\	.	.	.	.	.	.
.	.	.	16a\JJ	16cc\JJ	.	.	.	.	.	.
=32	=32	=32	=32	=32	=32	=32	=32	=32	=32	=32
4r	.	4rBB	2rg	2r	1ryy	1ryy	16d\LL	.	16b\LL	.
.	.	.	.	.	.	.	16e\	.	16cc\	.
.	.	.	.	.	.	.	16d\	.	16b\	.
.	.	.	.	.	.	.	16e\JJ	.	16cc\JJ	.
!	!	!	!	!	!	!	!LO:LB:g=original	!	!	!
4GG/	.	4GG/	.	.	.	.	16d\LL	.	16b\LL	.
.	.	.	.	.	.	.	16e\	.	16cc\	.
.	.	.	.	.	.	.	16d\	.	16b\	.
.	.	.	.	.	.	.	16e\JJ	.	16cc\JJ	.
4rBB	.	4rBB	16e/LL	16g#X\LL	.	.	4d\	.	4b\	.
.	.	.	16g#X/	16b\	.	.	.	.	.	.
.	.	.	16b/	16ee\	.	.	.	.	.	.
!	!	!	!LO:TX:a:t=P:problem:krzyżyk pod nutą	!	!	!	!	!	!	!
.	.	.	16g#X/JJ	16b\JJ	.	.	.	.	.	.
!LO:TX:a:t=P:problem:mixed beam	!	!	!	!	!	!	!	!	!	!
8AA/L	.	8AA/L	4r	4r	.	.	16c\LL	.	16a\LL	.
.	.	.	.	.	.	.	16e\	.	16cc\	.
8D\J	6 5	8D/J	.	.	.	.	16d\	.	16b\	.
.	.	.	.	.	.	.	16c\JJ	.	16a\JJ	.
=33	=33	=33	=33	=33	=33	=33	=33	=33	=33	=33
!LO:TX:a:t=P:problem:mixed beam	!	!LO:TX:a:t=P:problem:mixed beam	!	!LO:TX:a:t=P:problem:brak kreski taktowej po 1r	!	!	!	!	!	!
8E\L	4	8E\L	1r	1r	1ryy	1ryy	8.B/L	.	8.g#X\L	.
.	.	.	.	.	.	.	.	.	.	.
8EE/J	#	8EE/J	.	.	.	.	.	.	.	.
.	.	.	.	.	.	.	16B/Jk	.	16g#\Jk	.
!LO:TX:a:t=P:problem:krzyżyk na wysokości C	!	!	!	!	!	!	!	!	!	!
4AA/	#	4AA/	.	.	.	.	8c\L	.	8a\L	.
.	.	.	.	.	.	.	.	.	.	.
.	.	.	.	.	.	.	16g\L	.	16b\L	.
!	!	!	!	!	!	!	!LO:TX:a:t=e	!	!LO:TX:a:t=P:problem:krzyżyk nad nutą	!
.	.	.	.	.	.	.	16e\JJ	.	16cc#X\JJ	.
!LO:TX:a:t=P:problem:mixed beam	!	!	!	!	!	!	!	!	!	!
8D\L	.	8D\L	.	.	.	.	16f\LL	.	16dd\LL	.
.	.	.	.	.	.	.	16g\	.	16ee\	.
8A\	.	8A\	.	.	.	.	16a\	.	16ff\	.
.	.	.	.	.	.	.	16g\JJ	.	16ee\JJ	.
8D\	.	8D\	.	.	.	.	8f\	.	8dd\	.
.	.	.	.	.	.	.	.	.	.	.
!LO:TX:a:t=P:problem:krzyżyk przed nutą, na wysokości C	!	!	!	!	!	!	!	!	!	!
8AA/J	#	8AA\J	.	.	.	.	8e\	-nis	8cc#X\	-nis
.	.	.	.	.	.	.	.	.	.	.
!	!	!	!	!	!	!	!	!	!LO:LB:g=original	!
=34	=34	=34	=34	=34	=34	=34	=34	=34	=34	=34
2D\	.	2D\	2r	2r	1ryy	1ryy	(8a\L	E-	(8ff\L	E-
.	.	.	.	.	.	.	8g\J)	.	8ee\J)	.
.	.	.	.	.	.	.	(8f\L	-go	(8dd\L	-go
.	.	.	.	.	.	.	8g\J)	.	8ee\J)	.
4r	.	4r	4r	4r	.	.	8a\	Ma-	8ff\	Ma-
.	.	.	.	.	.	.	8f\	-ter	8dd\	-ter
8D\L	.	8D\L	16A/LL	16d/LL	.	.	4r	.	4r	.
.	.	.	16d/	16f/	.	.	.	.	.	.
8E\J	.	8E\J	16f/	16a/	.	.	.	.	.	.
.	.	.	16d/JJ	16f/JJ	.	.	.	.	.	.
!	!	!LO:LB:g=original	!LO:LB:g=original	!	!	!	!	!	!	!
=35	=35	=35	=35	=35	=35	=35	=35	=35	=35	=35
8F\L	6	8F\L	16A/LL	16d/LL	1ryy	1ryy	0r	.	0r	.
.	.	.	16d/	16f/	.	.	.	.	.	.
8D\J	.	8D\J	16f/	16a/	.	.	.	.	.	.
.	.	.	16d/JJ	16f/JJ	.	.	.	.	.	.
!LO:TX:a:t=P:problem:krzyżyk przed nutą, na wysokości C	!	!	!	!	!	!	!	!	!	!
8AA/L	#	8AA/L	16A/LL	16c#X/LL	.	.	.	.	.	.
.	.	.	16c#X/	16e/	.	.	.	.	.	.
8BB/J	.	8BB/J	16e/	16a/	.	.	.	.	.	.
.	.	.	16c#X/JJ	16e/JJ	.	.	.	.	.	.
8C#X/L	6	8C#X/L	16A/LL	16c#X/LL	.	.	.	.	.	.
.	.	.	16c#X/	16e/	.	.	.	.	.	.
8AA/J	.	8AA/J	16e/	16a/	.	.	.	.	.	.
.	.	.	16c#X/JJ	16e/JJ	.	.	.	.	.	.
8D\L	.	8D\L	16A/LL	16d/LL	.	.	.	.	.	.
.	.	.	16d/	16f/	.	.	.	.	.	.
8E\J	.	8E\J	16f/	16a/	.	.	.	.	.	.
.	.	.	16d/JJ	16f/JJ	.	.	.	.	.	.
=36	=36	=36	=36	=36	=36	=36	=36	=36	=36	=36
8F\L	6	8F\L	16A/LL	16d/LL	1ryy	1ryy	.	.	.	.
.	.	.	16d/	16f/	.	.	.	.	.	.
8D\J	.	8D\J	16f/	16a/	.	.	.	.	.	.
.	.	.	16d/JJ	16f/JJ	.	.	.	.	.	.
8E\L	-5:	8E\L	16c/LL	16e\LL	.	.	.	.	.	.
.	.	.	16e/	16g\	.	.	.	.	.	.
8D\J	.	8D\J	16g/	16b-X\	.	.	.	.	.	.
.	.	.	16e/JJ	16g\JJ	.	.	.	.	.	.
8E\L	.	8E\L	16c/LL	16e\LL	.	.	.	.	.	.
.	.	.	16e/	16g\	.	.	.	.	.	.
8C\J	-7	8C\J	16g/	16b-X\	.	.	.	.	.	.
.	.	.	16e/JJ	16g\JJ	.	.	.	.	.	.
4F\	.	4F\	16A/LL	16c/LL	.	.	.	.	.	.
!	!	!	!LO:SIC:s=16cn/:v	!	!	!	!	!	!	!
.	.	.	16c#X/	16f/	.	.	.	.	.	.
!	!	!	!LO:SIC:s=16f/:v	!	!	!	!	!	!	!
.	.	.	16e/	16a/	.	.	.	.	.	.
!	!	!	!LO:SIC:s=16cn/JJ:v	!	!	!	!	!	!	!
.	.	.	16c#/JJ	16f/JJ	.	.	.	.	.	.
!	!	!	!	!LO:LB:g=original	!	!	!	!	!	!
=37	=37	=37	=37	=37	=37	=37	=37	=37	=37	=37
!LO:TX:a:t=P:problem:krzyżyk przed nutą, na wysokości C	!	!	!	!	!	!	!	!	!	!
4AA/	7 5 #	4AA/	16A/LL	16c#X/LL	1ryy	1ryy	1r	.	1r	.
.	.	.	16c#X/	16e/	.	.	.	.	.	.
.	.	.	16e/	16g/	.	.	.	.	.	.
.	.	.	16c#/JJ	16e/JJ	.	.	.	.	.	.
!LO:LB:g=original	!	!	!	!	!	!	!	!	!	!
8D\L	.	8D\L	16A/LL	16d/LL	.	.	.	.	.	.
.	.	.	16d/	16f/	.	.	.	.	.	.
8E\J	.	8E\J	16f/	16a/	.	.	.	.	.	.
.	.	.	16d/JJ	16f/JJ	.	.	.	.	.	.
8F\L	6	8F\L	16A/LL	16d/LL	.	.	.	.	.	.
.	.	.	16d/	16f/	.	.	.	.	.	.
8D\J	.	8D\J	16f/	16a/	.	.	.	.	.	.
.	.	.	16d/JJ	16f/JJ	.	.	.	.	.	.
!LO:TX:a:t=P:problem:mixed beam	!	!LO:TX:a:t=P:problem:mixed beam	!	!	!	!	!	!	!	!
8A\L	4	8A\L	16A/LL	16c#X/LL	.	.	.	.	.	.
.	.	.	16c#X/	16e/	.	.	.	.	.	.
8AA/J	#	8AA/J	16e/	16a/	.	.	.	.	.	.
.	.	.	16c#X/JJ	16e/JJ	.	.	.	.	.	.
!	!	!	!LO:LB:g=original	!	!	!	!	!	!	!
=38	=38	=38	=38	=38	=38	=38	=38	=38	=38	=38
2D\	.	2D\	4d/	4d/	1ryy	1ryy	(8a\L	e-	8ff\L	e-
.	.	.	.	.	.	.	8g\J)	.	8ee\J	.
.	.	.	4rg	4re	.	.	(8f\L	-go	8dd\L	-go
.	.	.	.	.	.	.	8g\J)	.	8ee\J	.
4r	.	4r	2rg	2rg	.	.	8a\	Ma-	8ff\	Ma-
.	.	.	.	.	.	.	8f\	-ter	8dd\	-ter
!LO:TX:a:t=P:problem:mixed beam	!	!LO:TX:a:t=P:problem:mixed beam	!	!	!	!	!	!	!	!
8A\L	.	8A\L	.	.	.	.	8e\	pul-	8cc#X\	pul-
8AA/J	#	8AA/J	.	.	.	.	8e\	-chrae	8cc#\	-chrae
!	!	!	!	!	!	!	!LO:LB:g=original	!	!	!
=39	=39	=39	=39	=39	=39	=39	=39	=39	=39	=39
!	!	!	!	!LO:TX:a:t=1	!	!	!	!	!	!
4D/	.	4D\	1r	1rb	1ryy	1ryy	4r	.	16r	.
.	.	.	.	.	.	.	.	.	16dd\	di-
.	.	.	.	.	.	.	.	.	16cc#X\	-le-
.	.	.	.	.	.	.	.	.	16dd\	-cti-
4C/	4:3	4C\	.	.	.	.	16r	.	4ee\	-o-
.	.	.	.	.	.	.	16g\	Di-	.	.
.	.	.	.	.	.	.	16f\	-le-	.	.
.	.	.	.	.	.	.	16g\	-cti-	.	.
!LO:TX:a:t=P:problem:mixed beam	!	!LO:TX:a:t=P:problem:mixed beam	!	!	!	!	!	!	!	!
8D\L	.	8D\L	.	.	.	.	16f\LL	-o-	16dd\LL	.
.	.	.	.	.	.	.	16a\	.	16ff\	.
8G\	6 5	8G\	.	.	.	.	16g\	.	16ee\	.
.	.	.	.	.	.	.	16f\JJ	.	16dd\JJ	.
8A\	.	8A\	.	.	.	.	8e\	.	8cc#X\	.
8AA/J	#	8AA/J	.	.	.	.	8e\	-nis	8cc#\	-nis
!	!	!LO:LB:g=original	!	!	!	!	!	!	!	!
=40	=40	=40	=40	=40	=40	=40	=40	=40	=40	=40
8D\L	.	8D\L	16A/LL	16d/LL	1ryy	1ryy	00r	.	00r	.
.	.	.	16d/	16f/	.	.	.	.	.	.
8E\	.	8E\	16f/	16a/	.	.	.	.	.	.
.	.	.	16d/JJ	16f/JJ	.	.	.	.	.	.
8F\	6	8F\	16A/LL	16d/LL	.	.	.	.	.	.
.	.	.	16d/	16f/	.	.	.	.	.	.
8D\J	.	8D\J	16f/	16a/	.	.	.	.	.	.
.	.	.	16d/JJ	16f/JJ	.	.	.	.	.	.
!LO:TX:a:t=P:problem:krzyżyk przed nutą, na wysokości C	!	!	!	!	!	!	!	!	!	!
8AA/L	#	8AA/L	16A/LL	16c#X/LL	.	.	.	.	.	.
.	.	.	16c#X/	16e/	.	.	.	.	.	.
8BB/	.	8BB/	16e/	16a/	.	.	.	.	.	.
!	!	!	!LO:TX:a:t=P:problem:krzyżyk pod nutą	!	!	!	!	!	!	!
.	.	.	16c#X/JJ	16e/JJ	.	.	.	.	.	.
8C#X/	6	8C#X/	16A/LL	16c#X/LL	.	.	.	.	.	.
.	.	.	16c#X/	16e/	.	.	.	.	.	.
!LO:TX:a:t=P:problem:krzyżyk przed nutą, na wysokości C	!	!	!	!	!	!	!	!	!	!
8AA/J	#	8AA/J	16e/	16a/	.	.	.	.	.	.
!	!	!	!LO:TX:a:t=P:problem:krzyżyk pod nutą	!	!	!	!	!	!	!
.	.	.	16c#X/JJ	16e/JJ	.	.	.	.	.	.
=41	=41	=41	=41	=41	=41	=41	=41	=41	=41	=41
8F\L	6	8F\L	8a/	16d/LL	1ryy	1ryy	.	.	.	.
.	.	.	.	16A/	.	.	.	.	.	.
8E\	n6\	8E\	8r	16e/	.	.	.	.	.	.
.	.	.	.	16A/JJ	.	.	.	.	.	.
8A\	6	8A\	8e/	16f/LL	.	.	.	.	.	.
.	.	.	.	16A/	.	.	.	.	.	.
8E\J	n6\	8E\J	8rg	16e/	.	.	.	.	.	.
.	.	.	.	16A/JJ	.	.	.	.	.	.
4D\	.	4D\	8a/	16d/LL	.	.	.	.	.	.
.	.	.	.	16A/	.	.	.	.	.	.
.	.	.	8rg	16e/	.	.	.	.	.	.
.	.	.	.	16A/JJ	.	.	.	.	.	.
4r	.	4r	8e/	16f/LL	.	.	.	.	.	.
.	.	.	.	16A/	.	.	.	.	.	.
.	.	.	8rg	16e/	.	.	.	.	.	.
.	.	.	.	16A/JJ	.	.	.	.	.	.
!	!	!	!	!LO:LB:g=original	!	!	!	!	!	!
=42	=42	=42	=42	=42	=42	=42	=42	=42	=42	=42
8F\	.	8F\	8cc\	16f/LL	1ryy	1ryy	.	.	.	.
.	.	.	.	16c/	.	.	.	.	.	.
8r	.	8rBB	8rg	16g/	.	.	.	.	.	.
.	.	.	.	16c/JJ	.	.	.	.	.	.
8F\	.	8F\	8a/	16a/LL	.	.	.	.	.	.
.	.	.	.	16c/	.	.	.	.	.	.
8r	.	8rBB	8r	16g/	.	.	.	.	.	.
.	.	.	.	16c/JJ	.	.	.	.	.	.
2r	.	2rBB	8cc\	16f/LL	.	.	.	.	.	.
.	.	.	.	16c/	.	.	.	.	.	.
.	.	.	8rg	16g/	.	.	.	.	.	.
.	.	.	.	16c/JJ	.	.	.	.	.	.
.	.	.	8a/	16a/LL	.	.	.	.	.	.
.	.	.	.	16c/	.	.	.	.	.	.
.	.	.	8rg	16g/	.	.	.	.	.	.
.	.	.	.	16c/JJ	.	.	.	.	.	.
!LO:LB:g=original	!	!	!	!	!	!	!	!	!	!
=43	=43	=43	=43	=43	=43	=43	=43	=43	=43	=43
8D\L	.	8D\L	16A/LL	16d/LL	1ryy	1ryy	.	.	.	.
.	.	.	16d/	16f/	.	.	.	.	.	.
8E\	.	8E\	16f/	16a/	.	.	.	.	.	.
.	.	.	16d/JJ	16f/JJ	.	.	.	.	.	.
8F\	6	8F\	16A/LL	16d/LL	.	.	.	.	.	.
.	.	.	16d/	16f/	.	.	.	.	.	.
8D\J	.	8D\J	16f/	16a/	.	.	.	.	.	.
.	.	.	16d/JJ	16f/JJ	.	.	.	.	.	.
!LO:TX:a:t=P:problem:krzyżyk przed nutą, na wysokości C	!	!	!	!	!	!	!	!	!	!
8AA/L	#	8AA/L	16A/LL	16c#X/LL	.	.	.	.	.	.
.	.	.	16c#X/	16e/	.	.	.	.	.	.
8BB/	.	8BB/	16e/	16a/	.	.	.	.	.	.
.	.	.	16c#X/JJ	16e/JJ	.	.	.	.	.	.
!	!	!	!LO:LB:g=original	!	!	!	!	!	!	!
8C#X/	6	8C#X/	16A/LL	16c#X/LL	.	.	.	.	.	.
.	.	.	16c#X/	16e/	.	.	.	.	.	.
!LO:TX:a:t=P:problem:krzyżyk przed nutą, na wysokości C	!	!	!	!	!	!	!	!	!	!
8AA/J	#	8AA/J	16e/	16a/	.	.	.	.	.	.
!	!	!	!LO:TX:a:t=P:problem:krzyżyk pod nutą	!	!	!	!	!	!	!
.	.	.	16c#X/JJ	16e/JJ	.	.	.	.	.	.
=44	=44	=44	=44	=44	=44	=44	=44	=44	=44	=44
8F\L	6	8F\L	8a/	16d/LL	1ryy	1ryy	0r	.	1r	.
.	.	.	.	16A/	.	.	.	.	.	.
8E\	n6\	8E\	8r	16e/	.	.	.	.	.	.
.	.	.	.	16A/JJ	.	.	.	.	.	.
8A\	6	8A\	8f/	16f/LL	.	.	.	.	.	.
.	.	.	.	16A/	.	.	.	.	.	.
8E\J	n6\	8E\J	8rg	16e/	.	.	.	.	.	.
.	.	.	.	16A/JJ	.	.	.	.	.	.
4D\	.	4D\	8a/	16d/LL	.	.	.	.	.	.
.	.	.	.	16A/	.	.	.	.	.	.
.	.	.	8rg	16e/	.	.	.	.	.	.
.	.	.	.	16A/JJ	.	.	.	.	.	.
4r	.	4r	8f/	16f/LL	.	.	.	.	.	.
.	.	.	.	16A/	.	.	.	.	.	.
.	.	.	8rf	16e/	.	.	.	.	.	.
.	.	.	.	16A/JJ	.	.	.	.	.	.
!	!	!LO:LB:g=original	!	!LO:LB:g=original	!	!	!	!	!LO:LB:g=original	!
=45	=45	=45	=45	=45	=45	=45	=45	=45	=45	=45
!LO:TX:a:t=P:problem:mixed beam	!	!LO:TX:a:t=P:problem:mixed beam	!	!	!	!	!	!	!	!
8D\L	.	8D\L	16A/LL	16d/LL	1ryy	1ryy	.	.	2r	.
.	.	.	16d/	16f/	.	.	.	.	.	.
8G\	6 5	8G\	16f/	16a/	.	.	.	.	.	.
.	.	.	16d/JJ	16f/JJ	.	.	.	.	.	.
8A\	4	8A\	16A/LL	16c#X/LL	.	.	.	.	.	.
.	.	.	16c#X/	16e/	.	.	.	.	.	.
8AA/J	#	8AA/J	16e/	16a/	.	.	.	.	.	.
!	!	!	!LO:TX:a:t=P:problem:krzyżyk pod nutą	!	!	!	!	!	!	!
.	.	.	16c#X/JJ	16e/JJ	.	.	.	.	.	.
4D\	.	4D\	4d/	4d/	.	.	.	.	4r	.
4F\	.	4F\	4r	4r	.	.	.	.	16r	.
.	.	.	.	.	.	.	.	.	16dd\	Di-
.	.	.	.	.	.	.	.	.	16cc#X\	-le-
.	.	.	.	.	.	.	.	.	16dd\	-cti-
=46	=46	=46	=46	=46	=46	=46	=46	=46	=46	=46
!	!	!	!LO:TX:a:t=P:problem:pauza całonutowa pod 3 linią	!	!	!	!	!	!	!
4C/	4:3	4C/	1r	1r	1ryy	1ryy	16r	.	4ee\	-o-
.	.	.	.	.	.	.	16g\	Di-	.	.
.	.	.	.	.	.	.	16f\	-le-	.	.
.	.	.	.	.	.	.	16g\	-cti-	.	.
4D/	.	4D/	.	.	.	.	16f\LL	-o-	16dd\LL	.
.	.	.	.	.	.	.	16a\	.	16ff\	.
.	.	.	.	.	.	.	16g\	.	16ee\	.
.	.	.	.	.	.	.	16f\JJ	.	16dd\JJ	.
2r	.	2r	.	.	.	.	16e\LL	.	16cc#X\LL	.
.	.	.	.	.	.	.	16f\	.	16dd\	.
.	.	.	.	.	.	.	16e\	.	16cc#\	.
.	.	.	.	.	.	.	16f\JJ	.	16dd\JJ	.
.	.	.	.	.	.	.	16e\LL	.	16cc#X\LL	.
.	.	.	.	.	.	.	16f\	.	16dd\	.
.	.	.	.	.	.	.	16e\	.	16cc#\	.
.	.	.	.	.	.	.	16f\JJ	.	16dd\JJ	.
=47	=47	=47	=47	=47	=47	=47	=47	=47	=47	=47
!	!	!	!	!	!	!	!	!	!LO:TX:a:t=P:problem:krzyżyk na wysokości ee	!
4r	.	4r	16A/LL	16c#X/LL	1ryy	1ryy	4e\	.	4cc#X\	.
.	.	.	16c#X/	16e/	.	.	.	.	.	.
.	.	.	16e/	16a/	.	.	.	.	.	.
!	!	!	!LO:TX:a:t=P:problem:krzyżyk pod nutą	!	!	!	!	!	!	!
.	.	.	16c#X/JJ	16e/JJ	.	.	.	.	.	.
4D\	.	4D\	4r	4r	.	.	16f\LL	.	16dd\LL	.
.	.	.	.	.	.	.	16g\	.	16ee\	.
.	.	.	.	.	.	.	16f\	.	16dd\	.
.	.	.	.	.	.	.	16g\JJ	.	16ee\JJ	.
2r	.	2r	4r	4r	.	.	16f\LL	.	16dd\LL	.
.	.	.	.	.	.	.	16g\	.	16ee\	.
.	.	.	.	.	.	.	16f\	.	16dd\	.
.	.	.	.	.	.	.	16g\JJ	.	16ee\JJ	.
.	.	.	16A/LL	16d/LL	.	.	4f\	.	4dd\	.
.	.	.	16d/	16f/	.	.	.	.	.	.
.	.	.	16f/	16a/	.	.	.	.	.	.
.	.	.	16d/JJ	16f/JJ	.	.	.	.	.	.
!	!	!	!	!	!	!	!LO:LB:g=original	!	!	!
=48	=48	=48	=48	=48	=48	=48	=48	=48	=48	=48
!	!	!	!LO:TX:a:t=P:problem:pauza półnutowa nad 2 linią	!	!	!	!	!	!	!
4C/	.	4C/	2rg	2rg	1ryy	1ryy	16g\LL	.	16ee\LL	.
.	.	.	.	.	.	.	16a\	.	16ff\	.
.	.	.	.	.	.	.	16g\	.	16ee\	.
.	.	.	.	.	.	.	16a\JJ	.	16ff\JJ	.
4r	.	4r	.	.	.	.	16g\LL	.	16ee\LL	.
.	.	.	.	.	.	.	16a\	.	16ff\	.
.	.	.	.	.	.	.	16g\	.	16ee\	.
.	.	.	.	.	.	.	16a\JJ	.	16ff\JJ	.
!LO:TX:a:t=P:problem:krzyżyk przed nutą, na wysokości C	!	!	!	!	!	!	!	!	!	!
4AA/	6 5 #	4AA/	16A/LL	16c#X/LL	.	.	4g\	.	4ee\	.
!	!	!	!LO:TX:a:t=P:problem:krzyżyk pod nutą	!	!	!	!	!	!	!
.	.	.	16c#X/	16e/	.	.	.	.	.	.
.	.	.	16e/	16a/	.	.	.	.	.	.
!	!	!	!LO:TX:a:t=P:problem:krzyżyk pod nutą	!	!	!	!	!	!	!
.	.	.	16c#X/JJ	16e/JJ	.	.	.	.	.	.
!	!	!	!	!	!	!	!	!	!LO:LB:g=original	!
8D\L	.	8D\L	4r	4r	.	.	16f\LL	.	16dd\LL	.
.	.	.	.	.	.	.	16a\	.	16ff\	.
8G\J	6 5	8G\J	.	.	.	.	16g\	.	16ee\	.
.	.	.	.	.	.	.	16f\JJ	.	16dd\JJ	.
=49	=49	=49	=49	=49	=49	=49	=49	=49	=49	=49
!LO:TX:a:t=P:problem:mixed beam	!	!LO:TX:a:t=P:problem:mixed beam	!	!	!	!	!	!	!	!
8A\L	4	8A\L	00r	00r	1ryy	1ryy	8.e\L	.	8.cc#X\L	.
8AA/J	#	8AA/J	.	.	.	.	.	.	.	.
.	.	.	.	.	.	.	16d\Jk	.	16dd\Jk	.
4D\	.	4D\	.	.	.	.	4d\	-nis	4dd\	-nis
4D\	.	4D\	.	.	.	.	8d\	et	2rb	.
.	.	.	.	.	.	.	8f\	a-	.	.
8G\L	6	8G\L	.	.	.	.	(16e\LL	-gni-	.	.
.	.	.	.	.	.	.	16d\JJ)	.	.	.
8A\J	#	8A\J	.	.	.	.	(16d\LL	-ti-	.	.
.	.	.	.	.	.	.	16c#X\JJ)	.	.	.
!LO:LB:g=original	!	!	!	!	!	!	!	!	!	!
=50	=50	=50	=50	=50	=50	=50	=50	=50	=50	=50
4B-X\	7:6	4B-X\	.	.	1ryy	1ryy	4d\	-o-	2rb	.
4A\	#	4A\	.	.	.	.	4c#X\	-nis	.	.
4D\	.	4D\	.	.	.	.	8f\	et	8dd\	et
.	.	.	.	.	.	.	8a\	a-	8ff\	a-
4G\	6:5	4G\	.	.	.	.	(16g\LL	-gni-	(16ee\LL	-gni-
.	.	.	.	.	.	.	16f\JJ)	.	16dd\JJ)	.
.	.	.	.	.	.	.	(16f\LL	-ti-	(16dd\LL	-ti-
!	!	!	!	!	!	!	!	!	!LO:TX:a:t=P:problem:krzyżyk nad nutą	!
.	.	.	.	.	.	.	16e\JJ)	.	16cc#X\JJ)	.
!	!	!LO:LB:g=original	!	!	!	!	!	!	!	!
=51	=51	=51	=51	=51	=51	=51	=51	=51	=51	=51
8D\L	.	8D\L	.	.	1ryy	1ryy	4f\	-o-	4dd\	-o-
16F\L	6	16F\L	.	.	.	.	.	.	.	.
16G\JJ	6 5	16G\JJ	.	.	.	.	.	.	.	.
8A\L	#	8A\L	.	.	.	.	8e\	-nis	8cc#X\	-nis
8F\J	.	8F\J	.	.	.	.	8a\	et	8ff\	et
!LO:SIC:s=8C#/L:v	!	!LO:SIC:s=8C#/L:v	!	!	!	!	!	!	!	!
8C/L	5	8C/L	.	.	.	.	16g\LL	San-	(16ee\LL	San-
.	.	.	.	.	.	.	16a\JJ	.	16ff\JJ)	.
8D/J	.	8D/J	.	.	.	.	16g\LL	-ctae	(16ee\LL	-ctae
.	.	.	.	.	.	.	16f\JJ	.	16dd\JJ)	.
!LO:TX:a:t=P:problem:mixed beam	!	!LO:TX:a:t=P:problem:mixed beam	!	!	!	!	!	!	!	!
8A\L	.	8A\L	.	.	.	.	4c#X/	Spe-	8.ee\L	Spe-
8AA/J	#	8AA/J	.	.	.	.	.	.	.	.
.	.	.	.	.	.	.	.	.	16dd\Jk	.
!	!	!	!	!	!	!	!LO:LB:g=original	!	!	!
=52	=52	=52	=52	=52	=52	=52	=52	=52	=52	=52
4D\	.	4D\	.	.	1ryy	1ryy	8d\	-i	8dd\	-i
.	.	.	.	.	.	.	8a\	et	8ff\	et
4G\	6 5	4G\	.	.	.	.	(16g\LL	San-	(16ee\LL	San-
.	.	.	.	.	.	.	16a\JJ)	.	16ff\JJ)	.
.	.	.	.	.	.	.	(16g\LL	-ctae	(16ee\LL	-ctae
.	.	.	.	.	.	.	16f\JJ)	.	16dd\JJ)	.
!LO:TX:a:t=P:problem:mixed beam	!	!LO:TX:a:t=P:problem:mixed beam	!	!	!	!	!	!	!	!
8A\L	5 4	8A\L	.	.	.	.	8.c#X\L	spe-	8.ee\L	Spe-
8AA/J	x #	8AA/J	.	.	.	.	.	.	.	.
.	.	.	.	.	.	.	16d\Jk	.	16dd\Jk	.
!LO:TX:a:t=P:problem:kreska końcowa początek/koniec repetycji	!	!LO:TX:a:t=Verte Cito	!	!	!	!	!	!	!LO:TX:a:t=P:problem:jedna gruba kreska taktowa	!
4D\	.	4D\	.	.	.	.	4d\	-i	4dd\	-i
==	==	==	==	==	==	==	==	==	==	==
*-	*-	*-	*-	*-	*-	*-	*-	*-	*-	*-
!!!system-decoration: [(s1,s2,s3,s4)][(s5,s6,s7,s8)]s9
!!!ENC: Zofia Niedbalska
!!!END: 2020-11-13
!!!ENC: Andrzej Kubiczek
!!!END: 2020-04-21
